src/assets/integratedsolicon.svg

<svg width="56" height="56" viewBox="0 0 56 56" fill="none" xmlns="http://www.w3.org/2000/svg">
<path opacity="0.3" d="M40.9423 11.5938H15.0577C13.1447 11.5938 11.5938 13.1447 11.5938 15.0577V40.9423C11.5938 42.8553 13.1447 44.4062 15.0577 44.4062H40.9423C42.8553 44.4062 44.4062 42.8553 44.4062 40.9423V15.0577C44.4062 13.1447 42.8553 11.5938 40.9423 11.5938Z" fill="#FF0000"/>
<path d="M38.9375 20.5264V35.4736C38.9375 37.3866 37.3866 38.9375 35.4736 38.9375H20.5264C18.6134 38.9375 17.0625 37.3866 17.0625 35.4736V20.5264C17.0625 18.6134 18.6134 17.0625 20.5264 17.0625H35.4736C37.3866 17.0625 38.9375 18.6134 38.9375 20.5264Z" fill="white"/>
<path d="M40.9423 45.5H15.0577C12.5445 45.5 10.5 43.4555 10.5 40.9423V15.0577C10.5 12.5445 12.5445 10.5 15.0577 10.5H40.9423C43.4555 10.5 45.5 12.5445 45.5 15.0577V40.9423C45.5 43.4555 43.4555 45.5 40.9423 45.5ZM15.0577 12.6875C13.7507 12.6875 12.6875 13.7507 12.6875 15.0577V40.9423C12.6875 42.2493 13.7507 43.3125 15.0577 43.3125H40.9423C42.2493 43.3125 43.3125 42.2493 43.3125 40.9423V15.0577C43.3125 13.7507 42.2493 12.6875 40.9423 12.6875H15.0577Z" fill="#B30000"/>
<path d="M35.4736 40.0312H20.5264C18.0133 40.0312 15.9688 37.9867 15.9688 35.4736V20.5264C15.9688 18.0133 18.0133 15.9688 20.5264 15.9688H35.4736C37.9867 15.9688 40.0312 18.0133 40.0312 20.5264V35.4736C40.0312 37.9867 37.9867 40.0312 35.4736 40.0312ZM20.5264 18.1562C19.2195 18.1562 18.1562 19.2195 18.1562 20.5264V35.4736C18.1562 36.7805 19.2195 37.8438 20.5264 37.8438H35.4736C36.7805 37.8438 37.8438 36.7805 37.8438 35.4736V20.5264C37.8438 19.2195 36.7805 18.1562 35.4736 18.1562H20.5264ZM18.1562 12.6875C17.5522 12.6875 17.0625 12.1978 17.0625 11.5938V2.84375C17.0625 2.23967 17.5522 1.75 18.1562 1.75C18.7603 1.75 19.25 2.23967 19.25 2.84375V11.5938C19.25 12.1978 18.7603 12.6875 18.1562 12.6875ZM24.7188 12.6875C24.1147 12.6875 23.625 12.1978 23.625 11.5938V2.84375C23.625 2.23967 24.1147 1.75 24.7188 1.75C25.3228 1.75 25.8125 2.23967 25.8125 2.84375V11.5938C25.8125 12.1978 25.3228 12.6875 24.7188 12.6875ZM31.2812 12.6875C30.6773 12.6875 30.1875 12.1978 30.1875 11.5938V2.84375C30.1875 2.23967 30.6773 1.75 31.2812 1.75C31.8852 1.75 32.375 2.23967 32.375 2.84375V11.5938C32.375 12.1978 31.8852 12.6875 31.2812 12.6875ZM37.8438 12.6875C37.2398 12.6875 36.75 12.1978 36.75 11.5938V2.84375C36.75 2.23967 37.2398 1.75 37.8438 1.75C38.4477 1.75 38.9375 2.23967 38.9375 2.84375V11.5938C38.9375 12.1978 38.4477 12.6875 37.8438 12.6875ZM18.1562 54.25C17.5522 54.25 17.0625 53.7602 17.0625 53.1562V44.4062C17.0625 43.8023 17.5522 43.3125 18.1562 43.3125C18.7603 43.3125 19.25 43.8023 19.25 44.4062V53.1562C19.25 53.7602 18.7603 54.25 18.1562 54.25ZM24.7188 54.25C24.1147 54.25 23.625 53.7602 23.625 53.1562V44.4062C23.625 43.8023 24.1147 43.3125 24.7188 43.3125C25.3228 43.3125 25.8125 43.8023 25.8125 44.4062V53.1562C25.8125 53.7602 25.3228 54.25 24.7188 54.25ZM31.2812 54.25C30.6773 54.25 30.1875 53.7602 30.1875 53.1562V44.4062C30.1875 43.8023 30.6773 43.3125 31.2812 43.3125C31.8852 43.3125 32.375 43.8023 32.375 44.4062V53.1562C32.375 53.7602 31.8852 54.25 31.2812 54.25ZM37.8438 54.25C37.2398 54.25 36.75 53.7602 36.75 53.1562V44.4062C36.75 43.8023 37.2398 43.3125 37.8438 43.3125C38.4477 43.3125 38.9375 43.8023 38.9375 44.4062V53.1562C38.9375 53.7602 38.4477 54.25 37.8438 54.25ZM53.1562 19.25H44.4062C43.8023 19.25 43.3125 18.7603 43.3125 18.1562C43.3125 17.5522 43.8023 17.0625 44.4062 17.0625H53.1562C53.7602 17.0625 54.25 17.5522 54.25 18.1562C54.25 18.7603 53.7602 19.25 53.1562 19.25ZM53.1562 25.8125H44.4062C43.8023 25.8125 43.3125 25.3228 43.3125 24.7188C43.3125 24.1147 43.8023 23.625 44.4062 23.625H53.1562C53.7602 23.625 54.25 24.1147 54.25 24.7188C54.25 25.3228 53.7602 25.8125 53.1562 25.8125ZM53.1562 32.375H44.4062C43.8023 32.375 43.3125 31.8852 43.3125 31.2812C43.3125 30.6773 43.8023 30.1875 44.4062 30.1875H53.1562C53.7602 30.1875 54.25 30.6773 54.25 31.2812C54.25 31.8852 53.7602 32.375 53.1562 32.375ZM53.1562 38.9375H44.4062C43.8023 38.9375 43.3125 38.4477 43.3125 37.8438C43.3125 37.2398 43.8023 36.75 44.4062 36.75H53.1562C53.7602 36.75 54.25 37.2398 54.25 37.8438C54.25 38.4477 53.7602 38.9375 53.1562 38.9375ZM11.5938 19.25H2.84375C2.23967 19.25 1.75 18.7603 1.75 18.1562C1.75 17.5522 2.23967 17.0625 2.84375 17.0625H11.5938C12.1978 17.0625 12.6875 17.5522 12.6875 18.1562C12.6875 18.7603 12.1978 19.25 11.5938 19.25ZM11.5938 25.8125H2.84375C2.23967 25.8125 1.75 25.3228 1.75 24.7188C1.75 24.1147 2.23967 23.625 2.84375 23.625H11.5938C12.1978 23.625 12.6875 24.1147 12.6875 24.7188C12.6875 25.3228 12.1978 25.8125 11.5938 25.8125ZM11.5938 32.375H2.84375C2.23967 32.375 1.75 31.8852 1.75 31.2812C1.75 30.6773 2.23967 30.1875 2.84375 30.1875H11.5938C12.1978 30.1875 12.6875 30.6773 12.6875 31.2812C12.6875 31.8852 12.1978 32.375 11.5938 32.375ZM11.5938 38.9375H2.84375C2.23967 38.9375 1.75 38.4477 1.75 37.8438C1.75 37.2398 2.23967 36.75 2.84375 36.75H11.5938C12.1978 36.75 12.6875 37.2398 12.6875 37.8438C12.6875 38.4477 12.1978 38.9375 11.5938 38.9375Z" fill="#B30000"/>
<path d="M33.4688 25.8125H22.5312C21.9272 25.8125 21.4375 25.3228 21.4375 24.7188C21.4375 24.1147 21.9272 23.625 22.5312 23.625H33.4688C34.0727 23.625 34.5625 24.1147 34.5625 24.7188C34.5625 25.3228 34.0727 25.8125 33.4688 25.8125ZM30.1875 31.2812H22.5312C21.9272 31.2812 21.4375 30.7915 21.4375 30.1875C21.4375 29.5835 21.9272 29.0938 22.5312 29.0938H30.1875C30.7915 29.0938 31.2812 29.5835 31.2812 30.1875C31.2812 30.7915 30.7915 31.2812 30.1875 31.2812Z" fill="#B30000"/>
</svg>

<svg width="56" height="56" viewBox="0 0 56 56" fill="none" xmlns="http://www.w3.org/2000/svg">
    <path opacity=".3" d="M40.942 11.594H15.058a3.464 3.464 0 0 0-3.464 3.464v25.884a3.464 3.464 0 0 0 3.464 3.464h25.884a3.464 3.464 0 0 0 3.464-3.464V15.058a3.464 3.464 0 0 0-3.464-3.464z" fill="red"/>
    <path d="M38.938 20.526v14.948a3.464 3.464 0 0 1-3.464 3.464H20.526a3.464 3.464 0 0 1-3.463-3.464V20.526a3.464 3.464 0 0 1 3.463-3.463h14.948a3.464 3.464 0 0 1 3.464 3.463z" fill="#fff"/>
    <path d="M40.942 45.5H15.058a4.563 4.563 0 0 1-4.558-4.558V15.058a4.563 4.563 0 0 1 4.558-4.558h25.884a4.563 4.563 0 0 1 4.558 4.558v25.884a4.563 4.563 0 0 1-4.558 4.558zM15.058 12.687a2.373 2.373 0 0 0-2.37 2.37v25.885a2.373 2.373 0 0 0 2.37 2.37h25.884a2.373 2.373 0 0 0 2.37-2.37V15.058a2.373 2.373 0 0 0-2.37-2.37H15.058z" fill="#004498"/>
    <path d="M35.474 40.031H20.526a4.563 4.563 0 0 1-4.557-4.557V20.526a4.563 4.563 0 0 1 4.557-4.557h14.948a4.563 4.563 0 0 1 4.557 4.557v14.948a4.563 4.563 0 0 1-4.557 4.557zM20.526 18.156a2.373 2.373 0 0 0-2.37 2.37v14.948a2.373 2.373 0 0 0 2.37 2.37h14.948a2.373 2.373 0 0 0 2.37-2.37V20.526a2.373 2.373 0 0 0-2.37-2.37H20.526zm-2.37-5.468c-.604 0-1.093-.49-1.093-1.094v-8.75a1.094 1.094 0 1 1 2.187 0v8.75c0 .604-.49 1.094-1.094 1.094zm6.563 0c-.604 0-1.094-.49-1.094-1.094v-8.75a1.094 1.094 0 0 1 2.188 0v8.75c0 .604-.49 1.094-1.094 1.094zm6.562 0c-.604 0-1.093-.49-1.093-1.094v-8.75a1.094 1.094 0 0 1 2.187 0v8.75c0 .604-.49 1.094-1.094 1.094zm6.563 0c-.604 0-1.094-.49-1.094-1.094v-8.75a1.094 1.094 0 0 1 2.188 0v8.75c0 .604-.49 1.094-1.094 1.094zM18.156 54.25c-.604 0-1.093-.49-1.093-1.094v-8.75a1.094 1.094 0 0 1 2.187 0v8.75c0 .604-.49 1.094-1.094 1.094zm6.563 0c-.604 0-1.094-.49-1.094-1.094v-8.75a1.094 1.094 0 0 1 2.188 0v8.75c0 .604-.49 1.094-1.094 1.094zm6.562 0c-.604 0-1.093-.49-1.093-1.094v-8.75a1.094 1.094 0 0 1 2.187 0v8.75c0 .604-.49 1.094-1.094 1.094zm6.563 0c-.604 0-1.094-.49-1.094-1.094v-8.75a1.094 1.094 0 0 1 2.188 0v8.75c0 .604-.49 1.094-1.094 1.094zm15.312-35h-8.75a1.094 1.094 0 0 1 0-2.188h8.75a1.094 1.094 0 0 1 0 2.188zm0 6.563h-8.75a1.094 1.094 0 0 1 0-2.188h8.75a1.094 1.094 0 0 1 0 2.188zm0 6.562h-8.75a1.094 1.094 0 0 1 0-2.188h8.75a1.094 1.094 0 0 1 0 2.188zm0 6.563h-8.75a1.094 1.094 0 0 1 0-2.188h8.75a1.094 1.094 0 0 1 0 2.188zM11.594 19.25h-8.75a1.094 1.094 0 0 1 0-2.188h8.75a1.094 1.094 0 0 1 0 2.188zm0 6.563h-8.75a1.094 1.094 0 1 1 0-2.188h8.75a1.094 1.094 0 0 1 0 2.188zm0 6.562h-8.75a1.094 1.094 0 0 1 0-2.188h8.75a1.094 1.094 0 0 1 0 2.188zm0 6.563h-8.75a1.094 1.094 0 0 1 0-2.188h8.75a1.094 1.094 0 0 1 0 2.188z" fill="#004498"/>
    <path d="M33.469 25.813H22.53a1.094 1.094 0 0 1 0-2.188H33.47a1.094 1.094 0 0 1 0 2.188zm-3.282 5.468h-7.656a1.094 1.094 0 0 1 0-2.187h7.657a1.094 1.094 0 0 1 0 2.187z" fill="#004498"/>
</svg>
